X:233
T:Jenny's Welcome to Charlie
S:Nightingale
Z:robin.beech@mcgill.ca
R:reel
M:4/4
L:1/8
K:Ddor
D3B AGED | E2cE dEcE | D3B AGED | E3E EDCE
D3B AGED  | E2cE d2cd | ecdc AGED | E2cE EDCE ::
f3d efed | cAA2 cAAe | fedf edcd | eaag edde |
f3d efed | cAAc G2cd |  ecdc AGED | E2cE EDCE ::
a3a age^f | g2a^f gede | eaag a3g | eaag edde |
a2gb age^f | g3g gedB | G2cd ecdc | AcGE EDD2 ::
Addc defe | Acc2 cAGc | Addc d2cd | eaag edcA |
d3d dcAB | ccdB cAGE | D2(3FGA AddB | cAGE EDD2 :|
